X:30
T:Road to Ballymac
R:reel
C:Leslie Craig
H:The composer may be contacted at www.hastetothewedding.com
D:Dermot O'Sullivan
S:Clare FM
Z:psc -  http://www.cranfordpub.com
L:1/8
Q:333
M:C|
K:G
E|DG ~G2 BAGA|Bd ~d2 e2 de|gd ~d2 egdg|gedB ABGE|
DEGA BAGA|Bd ~d2 edBd|gd ~d2 egdB|AcBA G3:|
|:A|Bd ~d2 edBd|eg ~g2 a2 ga|b2 ag gede|gedB ABGA|
Bd ~d2 edBd|eg ~g2 a2 ga|bgag gedB|AcBA G3:|
